X: 28082
T: Mr Sharp's Quadrille
R: reel
M: 4/4
K: Amajor
M:2/4
|:c/d/|ec f/e/d/c/|eA Ac/d/|eA ed/c/|dB Bc/d/|
eA cA|eA cA|d/e/f/d/ c/d/e/c/|dB B:|
|:c/d/|ea ca|eA Ac/d/|ea ca|fB Bc/d/|
ea ca|eA cA|d/e/f/d/ c/d/e/c/|dB B:|

